images/icons/v2/pending-invite-24.svg

<svg fill="none" height="24" viewBox="0 0 24 24" width="24" xmlns="http://www.w3.org/2000/svg"><g fill="#000"><path clip-rule="evenodd" d="m19.513 10.9418c.5171-.6199.8469-1.37418.951-2.17469.104-.80051-.0221-1.6141-.3636-2.34555s-.8842-1.35053-1.5647-1.78478-1.4706-.66573-2.2778-.66734c-.8073-.0016-1.5983.22673-2.2805.65827-.6822.43155-1.2274 1.04845-1.5718 1.77855-.3444.73009-.4737 1.54316-.3729 2.34408s.4277 1.55656.9423 2.17846c-.4747.1353-.9255.3438-1.336.618-.2403-.5596-.5983-1.0609-1.0496-1.4698-.4513-.40888-.98542-.71581-1.56595-.8999s-1.19388-.24102-1.79837-.16692c-.6045.07409-1.18594.27749-1.70482.59634-.51887.31886-.96301.74568-1.3022 1.25148-.3392.5058-.56551 1.0787-.66354 1.6798s-.06549 1.2162.09541 1.8036c.16091.5874.4464 1.1332.83707 1.6004-.9993.2746-1.88119.8688-2.51088 1.6919-.62968.8231-.97253 1.8298-.97612 2.8661v1.5h1.5v-1.5c.00106-.8616.34381-1.6877.95307-2.2969.60927-.6093 1.4353-.952 2.29693-.9531h4c.8616.0011 1.6877.3438 2.2969.9531.6093.6092.952 1.4353.9531 2.2969v1.5h1.5v-1.5c-.0036-1.0363-.3464-2.043-.9761-2.8661s-1.5116-1.4173-2.5109-1.6919c.6338-.7542.9831-1.7068.987-2.692 0-.029-.008-.055-.008-.083.6058-.5862 1.4151-.9149 2.258-.917h4c.8616.0011 1.6877.3438 2.2969.9531.6093.6092.952 1.4353.9531 2.2969v1.5h1.5v-1.5c-.0036-1.0363-.3464-2.043-.9761-2.8661s-1.5116-1.4173-2.5109-1.6919zm-11.76301 5.0581c-.5439 0-1.07558-.1613-1.52782-.4635-.45223-.3021-.80471-.7316-1.01285-1.2341s-.2626-1.0555-.15649-1.5889c.10611-.5335.36802-1.0235.75262-1.408.38459-.3846.87459-.6465 1.40804-.7526s1.08638-.0517 1.58888.1565c.5025.2081.93199.5605 1.23413 1.0128.3022.4522.4635.9839.4635 1.5278 0 .7293-.2897 1.4288-.80547 1.9445-.51572.5158-1.21519.8055-1.94454.8055zm8.50001-4.9998c-.5439 0-1.0756-.1612-1.5278-.4634-.4523-.3022-.8047-.73169-1.0129-1.23418-.2081-.5025-.2626-1.05543-.1565-1.58888s.3681-1.02345.7527-1.40805c.3846-.38459.8746-.6465 1.408-.75261.5335-.10611 1.0864-.05165 1.5889.15649s.932.56061 1.2341 1.01285c.3022.45223.4635.98392.4635 1.52782 0 .36113-.0711.71873-.2093 1.05238-.1382.33364-.3408.6368-.5962.89218-.2553.2553-.5585.4579-.8921.5961-.3337.1382-.6913.2093-1.0524.2093z" fill-rule="evenodd"/><path d="m9.45703 5.76128h2.07207v-1.41158h-2.07207v-2.16797h-1.39027v2.16797h-2.06676v1.41158h2.06676v2.16797h1.39027z"/></g></svg>

<svg width="24" height="24" viewBox="0 0 24 24" fill="none" xmlns="http://www.w3.org/2000/svg">
<path fill-rule="evenodd" clip-rule="evenodd" d="M19.513 10.9418C20.0301 10.3219 20.3599 9.56762 20.464 8.76711C20.568 7.9666 20.4419 7.15301 20.1004 6.42156C19.7589 5.69011 19.2162 5.07103 18.5357 4.63678C17.8552 4.20253 17.0651 3.97105 16.2579 3.96944C15.4506 3.96784 14.6596 4.19617 13.9774 4.62771C13.2952 5.05926 12.75 5.67616 12.4056 6.40626C12.0612 7.13635 11.9319 7.94942 12.0327 8.75034C12.1335 9.55126 12.4604 10.3069 12.975 10.9288C12.5003 11.0641 12.0495 11.2726 11.639 11.5468C11.3987 10.9872 11.0407 10.4859 10.5894 10.077C10.1381 9.66812 9.60398 9.36119 9.02345 9.1771C8.44292 8.99301 7.82957 8.93608 7.22508 9.01018C6.62058 9.08427 6.03914 9.28767 5.52026 9.60652C5.00139 9.92538 4.55725 10.3522 4.21806 10.858C3.87886 11.3638 3.65255 11.9367 3.55452 12.5378C3.45649 13.1389 3.48903 13.754 3.64993 14.3414C3.81084 14.9288 4.09633 15.4746 4.487 15.9418C3.4877 16.2164 2.60581 16.8106 1.97612 17.6337C1.34644 18.4568 1.00359 19.4635 1 20.4998V21.9998H2.5V20.4998C2.50106 19.6382 2.84381 18.8121 3.45307 18.2029C4.06234 17.5936 4.88837 17.2509 5.75 17.2498H9.75C10.6116 17.2509 11.4377 17.5936 12.0469 18.2029C12.6562 18.8121 12.9989 19.6382 13 20.4998V21.9998H14.5V20.4998C14.4964 19.4635 14.1536 18.4568 13.5239 17.6337C12.8942 16.8106 12.0123 16.2164 11.013 15.9418C11.6468 15.1876 11.9961 14.235 12 13.2498C12 13.2208 11.992 13.1948 11.992 13.1668C12.5978 12.5806 13.4071 12.2519 14.25 12.2498H18.25C19.1116 12.2509 19.9377 12.5936 20.5469 13.2029C21.1562 13.8121 21.4989 14.6382 21.5 15.4998V16.9998H23V15.4998C22.9964 14.4635 22.6536 13.4568 22.0239 12.6337C21.3942 11.8106 20.5123 11.2164 19.513 10.9418ZM7.74999 15.9999C7.20609 15.9999 6.67441 15.8386 6.22217 15.5364C5.76994 15.2343 5.41746 14.8048 5.20932 14.3023C5.00118 13.7998 4.94672 13.2468 5.05283 12.7134C5.15894 12.1799 5.42085 11.6899 5.80545 11.3054C6.19004 10.9208 6.68004 10.6589 7.21349 10.5528C7.74694 10.4467 8.29987 10.5011 8.80237 10.7093C9.30487 10.9174 9.73436 11.2698 10.0365 11.7221C10.3387 12.1743 10.5 12.706 10.5 13.2499C10.5 13.9792 10.2103 14.6787 9.69453 15.1944C9.17881 15.7102 8.47934 15.9999 7.74999 15.9999ZM16.25 11.0001C15.7061 11.0001 15.1744 10.8389 14.7222 10.5367C14.2699 10.2345 13.9175 9.80501 13.7093 9.30252C13.5012 8.80002 13.4467 8.24709 13.5528 7.71364C13.6589 7.18019 13.9209 6.69019 14.3055 6.30559C14.6901 5.921 15.1801 5.65909 15.7135 5.55298C16.247 5.44687 16.7999 5.50133 17.3024 5.70947C17.8049 5.91761 18.2344 6.27008 18.5365 6.72232C18.8387 7.17455 19 7.70624 19 8.25014C19 8.61127 18.9289 8.96887 18.7907 9.30252C18.6525 9.63616 18.4499 9.93932 18.1945 10.1947C17.9392 10.45 17.636 10.6526 17.3024 10.7908C16.9687 10.929 16.6111 11.0001 16.25 11.0001Z" fill="black"/>
<path d="M9.45703 5.76128H11.5291V4.3497H9.45703V2.18173H8.06676V4.3497H6V5.76128H8.06676V7.92925H9.45703V5.76128Z" fill="black"/>
</svg>
